app/ui/static/images/icons/solid/exclamation-triangle.svg

<svg width="20" height="20" viewBox="0 0 20 20" fill="none" xmlns="http://www.w3.org/2000/svg">
<path fill-rule="evenodd" clip-rule="evenodd" d="M8.4845 2.49499C9.15808 1.32833 10.842 1.32833 11.5156 2.495L17.7943 13.37C18.4678 14.5367 17.6259 15.995 16.2787 15.995H3.72136C2.37421 15.995 1.53224 14.5367 2.20582 13.37L8.4845 2.49499ZM10 5C10.4142 5 10.75 5.33579 10.75 5.75V9.25C10.75 9.66421 10.4142 10 10 10C9.58579 10 9.25 9.66421 9.25 9.25L9.25 5.75C9.25 5.33579 9.58579 5 10 5ZM10 14C10.5523 14 11 13.5523 11 13C11 12.4477 10.5523 12 10 12C9.44772 12 9 12.4477 9 13C9 13.5523 9.44772 14 10 14Z" fill="#0F172A"/>
</svg>

<svg xmlns="http://www.w3.org/2000/svg" viewBox="0 0 20 20" fill="currentColor" aria-hidden="true">
  <path fill-rule="evenodd" d="M8.485 2.495c.673-1.167 2.357-1.167 3.03 0l6.28 10.875c.673 1.167-.17 2.625-1.516 2.625H3.72c-1.347 0-2.189-1.458-1.515-2.625L8.485 2.495zM10 5a.75.75 0 01.75.75v3.5a.75.75 0 01-1.5 0v-3.5A.75.75 0 0110 5zm0 9a1 1 0 100-2 1 1 0 000 2z" clip-rule="evenodd"/>
</svg>
